X:18666
T:When Sick is it Tea You Want?
T:Go to the Devil and Shake Yourself
S:as played in Madison, Wisconsin
N:transcribed by Alan Ng
C:Traditional
Z: id:ng-jigs-22 transcribed January 26, 1999. Compare with hn-jig-180
R:jig
M:6/8
K:D
E:13
Add dcB|AFB AFB|Add cde|fdc d2B|Add dcB|AFB AFB|Add cde|1 fdd d2B:|2 fdd dfg|:\
afd dc=c|BGG Gga|bge e^dd|cAA AFG|Add dcB|AFB AFB|Add cde|1 fdd dfg:|2 fdd d2B|]**


